!!!OTL: 412. Staendchensaenger und Nachtmaechter. / [Zwiegesang.]
!!!ARE: Europa, Mitteleuropa, Deutschland, Sachsen; Brandenburg; Niederrhein
!!!SCT: B0412
!!!TXL: @@NDS
!!!YEM: Copyright 1995, estate of Helmut Schaffrath.
**kern	**text
*ICvox	*
*Ivox	*
*clefG2	*
*M4/4	*
*met(c)	*
*k[f#c#]	*
*D:	*
=1	=1
!LO:TX:a:t=Mäßig.	!
{8f#L	Dun-
8gJ	.
8f#L	-kel
8gJ	.
4a	iſt
4a	ſchon
=2	=2
8bL	je-
8aJ	.
8bL	-des
8cc#J	.
4dd	Fen-
4a}	-ſter,
=3	=3
{4a	Al-
4g	-les
4g	ſtill
4f#	und
=4	=4
4e	ſtumm
4r	.
2r}	.
=5	=5
{4.cc#	nur
8ee	Ver-
4dd	-lieb-
4a	-te
=6	=6
4.cc#	und
8ee	Ge-
4dd	-ſpen-
4a}	-ſter
=7	=7
{4.dd	ſchleichen
8b	.
8aL	noch
8f#J	.
8gL	her-
8eJ	.
=8	=8
4d	-um.
4r	.
2r}	.
==	==
!!!AGN: Nachtwaechter - Lied, Staendchen
!!!GTL: Liebeslieder - Liebeslust
!!!ONB: ESAC (Essen Associative Code) Database: BOEHME
!!!AMT: simple quadruple
!!!AIN: vox
!!!EED: Helmut Schaffrath
!!!EEV: 1.0
!!Mel. vielfach mündlich: aus Sachſen, Brandenburg, Hannover, vom Niederrhein etc.
!!@@COMMENT:"Sehr beliebter Ʒwiegeſang ʒwiſchen einem Liebhaber und Nachtwächter, um 1800 entſtanden
!!und bis um 1850 noch in Norddeutſchland geſungen. Der Nachtwächter ſingt niederdeutſch. - Das
!!ſcherʒhafte Duett iſt ſehr wahrſcheinlich veranlaßt worden durch das ältere Lied von Kotʒebue: !!"Komm', fein Liebchen, komm' an's Fenſter."[...]"
!!@@END:
!!!URL-scan: https://archive.org/details/BoehmeVtLieder1895/page/n339/mode/2up
!!!ENC: Anna Maria Matuszewska
!!!EEV: 2024/08/07
*-	*-
